X:193
T:Christmas waltzes
T:Away in a Manger
C:William J Kirkpatrick, 1895
M:3/4
L:1/4
%%MIDI beat 100 95 80
Q:1/4=112
K:G
|: D | "G"GG "D7"A/B/ | "G"GG B/c/ | "G"dd "E7"e | "Am"c2A/B/ |\
"D"ccd | "Em"BB G/B/ | "A7"AEG | "D"F2"D7"D |
"G"GG "D7"A/B/ | "G"GG B/c/ | "G"dd "E7"e | "Am"c2A/B/ | "D"ccd |\
"Em"BB G/B/ | "Am"AE "D7"F | "G"G2 :|
N:Replace by blank line and X field
T:Silent Night
C:Franz Gruber, 1818
%%MIDI beat 100 95 80
%%MIDI ratio 3 1
Q:1/4=112
M:3/4
R:Waltz
L:1/4
K:D
"D"A>BA | "/"F3 | "D"A>BA | "/"F3 | "Em"e2e | "A7"c3 | "D"d2d | "D7"A3 ||
"G"B2B | "/"d>cB | "D"A>BA | "/"F3 | "G"B2B | "/"d>cB | "D"A>BA | "/"F3 ||
"Em"e2e | "A7"g>ec | "D"d3 | "Bm"f3 | "D/A"dAF | "A7"A>GE | "D"D3 | "/"F/G/ A/B/ c/d/ |
"Em"e2e | "A7"g>ec | "D"d3 | "Bm"f3 | "D/A"dAF | "A7"A>GE | "D"D3 | "/"z3 |]
N:Replace by blank line and X field
T:The First Noel
C:Traditional English
%%MIDI beat 100 95 80
Q:1/4=112
M:3/4
R:Waltz
%%MIDI chordname dim 0 3 6 9
L:1/4
K:D
|: F/E/ | "D"D>E "Bm"F/G/ | "A"A2 B/c/ | "G"d c "A7"B | "D"A2 B/c/ |\
"G"d c "Em"B | "A"AB "A7"c | "D"d A "A7"G | "D"F2"A"F/E/ |
"Bm"D>E F/G/ | "F#m"A2 "Bm"d/c/ | "G"B2 B | "D/A"A2- "A7"A |\
"Bm"dc "G"B | "A7"ABc | "D"d A "A7"G | "D"F2 :|
N:Replace by blank line and X field
T:The Coventry Carol
C:Traditional English
%%MIDI beat 100 95 80
Q:1/4=112
M:3/4
R:Waltz
L:1/4
K:Am
|: "Am"A A "E7"^G | "Am"A2 c | "Dm"B2 A | "E7"^G3 |\
"Am"A B c | "Dm"d2 "E7"B | "Am"A3- | A z "C"e |
"G"d2 "Am"c | "E7"B2 "Am"c | "Dm"B2 "/"A | "E7"^G3 |\
"Am"A "E"^G "F"A | "Dm"d2 "E7"B | "A"^c3- | c2 z :|
N:Replace by blank line and X field
T:We Three Kings
%%MIDI beat 100 95 80
Q:1/4=112
M:3/4
R:Waltz
L:1/4
K:Em
| "Em"B2A | "/"G2E | "B7"FGF | "Em"E3 | "Em"B2A | "/"G2E | "B7"FGF | "Em"E3 |
"G"G2G | "D"A2A | "G"B2B | "Bm"dcB | "Am"ABA | "B7"G2F | "Em"E3 | "D7"F2A |
| "G"G2G | "/"G2D | "C"G2E | "G"G3 | "G"G2G | "/"G2D | "C"G2E | "G"G3 |
"Em"G2G | "D"A2"G"B | "C"c2"G"B | "D"A2B | "G"G2G | "/"G2D | "C"G2E | "G"G3 |]
N:Replace by blank line and X field
T:We Wish You a Merry Christmas
C:Traditional English
%%MIDI beat 100 95 80
S:Colin Hume's website,  colinhume.com  - chords can also be printed below the stave.
N:For "The Christmas Waltz" by Colin Hume,
N:play a 32-bar carol plus just the A-music of "We wish you a Merry Christmas" each time.
Q:1/4=112
M:3/4
R:Waltz
L:1/4
K:G
D | "G"G G/A/ G/F/ | "C"E C E | "A7"A A/B/ A/G/ | "D"F D F | "B7"B B/c/ B/A/ | "Em"G E D/D/ | "Am"E A "D7"F | "G"G2 |
D | "G"G G G | "Bm"F2 F | "A7"G F E | "D"D2 A | "Em"B A/A/ G/G/ | "D"d D D/D/ | "C"E A "D7"F | "G"G3 |]

